X:1
T:Swiftly from the mountain's brow - Webbe
T:#
%%score [ 1 2 3 4 ]
L:1/8
Q:1/4=72
M:2/4
K:Eb
V:1 treble nm="Soprano " snm="S"
V:2 treble nm="Alto" snm="A"
V:3 treble-8 nm="Tenor" snm="T"
V:4 bass nm="Bass" snm="B"
V:1
"^John Cunningham\n(1729-73)""^Swiftly from the mountain's brow""^Samuel Webbe \n(1740-1816)""^allegretto" e2 B2 | %1
w: Swift- ly,|
 e2 e2 | z f/e/ de | f2 FA | z2 cA |[M:2/4] z2 Be | e2 d2 |"^dim." e4- | e2!p! d2 | e4 | e2 B2 | %11
w: swift- ly|from the moun- tain's|brow, Sha- dows,|sha- dows|nurs'd by|night re-|tire,|* re-|tire;|Swift- ly,|
 e2 e2 | z!f! f/e/ de | f2 FA | z2 cA | z2 Be | e2 d2 | e4- | e2!p! d2 | e4 ||[M:6/8] x6 | %21
w: swift- ly|from the moun- tain's|brow, Sha- dows,|sha- dows|nurs'd by|night re-|tire,|* re-|tire;||
[M:6/8]"^dolce" z GG A2 B | !>!c3 B3 | e3- e3 | e3 e2 z | z2 B B2 B | =A3 f3 | e3 d3 | c3 d3 | %29
w: And the peep- ing|sun- beams|now, *||now Paint with|gold, now|paint with|gold, now|
 c3 B3 | (=A3 B2) B | B3 =A3 | B6 | z GG A2 B | c3 B3 | e6- | e3 e2 z | z2 B B2 B | =A3 f3 | %39
w: paint with|gold * the|vil- lage|spire,|And the peep- ing|sun- beams|now,||now Paint with|gold, now|
 e3 d3 | c3 d3 | c3 B3 | (=A3 B2) B | B3 T=A3 | B3- B2 |:[M:4/4] (TB2 c)G (A2 B) (B/A/) | %46
w: paint with|gold, now|paint with|gold * the|vil- lage|spire. *|Sweet, * oh sweet * the *|
 (TG3/2F/4G/4 c2 Be) Td2 | e8 | z4 z2 (B2- | B3 c/B/ A2) G2 | A3 f (Tf>e) (Te>d) | e8 | z4 z2 Be | %53
w: war\- * * * * * bling|throng,|Sweet,|* * * * oh|sweet the war\- * bling *|throng,|On the|
 dfFA G3 G | FAAF B2 z2 | z4 A2 A2 | AB (c/d/)e (e d3) | z4 G2 G2 | %58
w: white em- blos- som'd spray, the|white em- blos- som'd spray,|On the|white em- blos\- * som'd spray; *|Na- ture's|
 G (F/E/) (F/G/) (A/B/) c2!f! cc | d (e/d/) ee d2!p! dB | z2 BG z4 | z4 z2 eB | z2 eB!f! cdef | %63
w: u- ni\- * ver\- * sal * song, Na- ture's|u- ni\- * ver- sal song E- choes,|e- choes,|e- choes,|e- choes, e- choes to the|
 e2 d2 e4 |!p! (GB/A/ G)G (Ac/B/ A) (A/G/) | (Ff/e/ d) (e/f/) e4 |!f! eB z2 eB z f/f/ | e2 d2 e4 :| %68
w: ri- sing day,|Na\- * * * ture's u\- * * * ni\- *|ver\- * * * sal * song|E- choes, e- choes to the|ri- sing day.|
V:2
 z4 | G2 E2 | z D/E/ FG | A4 | GE z2 |[M:2/4] DF FG | F2 F2 |"^dim." G4- | G2!p! F2 | G4- | G4 | %11
w: |Swift- ly|from the moun- tain's|brow,|Sha- dows,|sha- dows nurs'd by|night re-|tire,|* re-|tire;||
 G2 E2 | z!f! D/E/ FG | A4 | GE z2 | D (B,/C/) (D/F/) (E/G/) | C2 B,2 | B,4- | B,2!p! F2 | G4 || %20
w: Swift- ly|from the moun- tain's|brow,|Sha- dows,|sha- dows * nurs'd * by *|night re-|tire,|* re-|tire;|
[M:6/8] x6 |[M:6/8] z EE F2 G | !>!A3 G3 | E3- E3 | E3 E2 z | z2 G G2 G | F3 F3- | F2 F F2 F | %28
w: |And the peep- ing|sun- beams|now, *||now Paint with|gold, now,|* now paint with|
 F6- | F2 F F2 F | F3- F2 G | F3- F2 E | D6 | z EE F2 G | A3 G3 | E6- | E3 E2 z | z2 G G2 G | %38
w: gold,|* now paint with|gold * the|vil\- * lage|spire,|And the peep- ing|sun- beams|now,||now Paint with|
 F3 F3- | F2 F F2 F | F6- | F2 F F2 F | F3- F2 G | F3- F2 E | D3- D2 |:[M:4/4] z4 (F2 G)D | %46
w: gold, now,|* now paint with|gold,|* now paint with|gold * the|vil\- * lage|spire. *|Sweet, * oh|
 (E3/2D/4E/4 A)A G2 TF2 | G4 z2 z E | (E TD2) D E2 (G2- | G3 A/G/ F2) E2 | F3 A (TA>G) (TG>F) | %51
w: sweet * * * the war- bling|throng, the|war\- * bling throng, Sweet,|* * * * oh|sweet the war\- * bling *|
 G4 z2 z E | (E TD2) D E4 | z8 | z4 E2 E2 | EGGG A4 | z8 | z8 | z4 z2!f! A (A/G/) | %59
w: throng, the|war\- * bling throng,||On the|white em- blos- som'd spray;|||Na- ture's *|
 F (G/A/) GG F2!p! FD | z2 GE z2 DE | (C!<(!D) (E!<)!F) G4 | EB, z2!f! EF E (E/A/) | G2 F2 G4 | %64
w: u- ni\- * ver- sal song E- choes,|e- choes, to the|ri\- * sing * day,|E- choes, e- choes to the *|ri- sing day,|
!p! (EG/F/ E)_D (CE/D/ C) (F/E/) | (=D>E F) (G/A/) G4 |!f! (EG/F/ E)D (EG/F/ E)A | G2 F2 G4 :| %68
w: Na\- * * * ture's u\- * * * ni\- *|ver\- * * sal * song|E\- * * * choes to * * * the|ri- sing day.|
V:3
 z4 | E2 G2 | z B/B/ BB | A4 | z4 |[M:2/4][K:treble-8] FD dB | c2 B2 |"^dim." B4- | B2!p! B2 | %9
w: |Swift- ly|from the moun- tain's|brow,||Sha- dows nurs'd by|night re-|tire,|* re-|
 B4- | B4 | B2 G2 | z!f! B/B/ BB | A4 | z4 | F (D/E/) FG | F2 (FG/A/) | G4- | G2!p! B2 | B2 e2 || %20
w: tire;||Swift- ly|from the moun- tain's|brow,||Sha- dows * nurs'd by|night re\- * *|tire,|* re-|tire, re-|
[M:6/8] x6 |[M:6/8][K:treble-8] e6- | e6 | z GG A2 B | c3 B2 A | G3 c3 | c3 d3 | c3 B3 | =A3 f3 | %29
w: |tire;||And the peep- ing|sun- beams now|Paint with|gold, now|paint with|gold, now|
 e3 d3 | (c3 d2) c | d3 c3 | B6- | B3 z3 | z6 | z GG A2 B | c3 B2 A | G3 c3 | c3 d3 | c3 B3 | %40
w: paint with|gold * the|vil- lage|spire,|||And the peep- ing|sun- beams now|Paint with|gold, now|paint with|
 =A3 f3 | e3 d3 | (c3 d2) c | d3 Tc3 | B3- B2 |:[M:4/4][K:treble-8] z8 | z8 | B3 B c2 B2 | %48
w: gold, now|paint with|gold * the|vil- lage|spire. *|||Sweet, oh sweet the|
 TA3 A G4 | z8 | z8 | B3 B c2 B2 | TA3 A G4 | z4 z2 Be | dfFA G2 Bc | _dddB c4 | z4 B2 B2 | %57
w: war- bling throng,|||Sweet, oh sweet the|war- bling throng,|On the|white em- blos- som'd spray, on the|white em- blos- som'd spray;|Na- ture's|
 B (A/G/) (A/B/) (c/d/) e4- | e6!f! ee | fBBB B4 |!p! fd z2 BGFG | (A!<(!B) (c!<)!d) e4 | %62
w: u- ni\- * ver\- * sal * song,|* Na- ture's|u- ni- ver- sal song|E- choes, e- choes to the|ri\- * sing * day,|
 EG z2!f! cABc | B2 B2 B4 |!p! B3 B c3 c | (dB) B2 B4 |!f! G2 A2 B2 c2 | B2 B2 B4 :| %68
w: E- choes, e- choes to the|ri- sing day,|Na- ture's u- ni-|ver\- * sal song|E- choes to the|ri- sing day.|
V:4
 E,2 G,2 | z2 G,E, | A,A, A,G, | F,2 D,B,, | E,2 A,,C, |[M:2/4] B,,3 G,, | A,,2 B,,2 | %7
w: Swift- ly,|swift- ly|from the moun- tain's|brow, Sha- dows|nurs'd, sha- dows|nurs'd by|night re-|
"^dim." E,4- | E,2!p! B,,2 | E,4- | E,4 | E,4 |!f! A,A, A,G, | F,2 D,B,, | E,2 A,,C, | B,,3 G,, | %16
w: tire,|* re-|tire;|||from the moun- tain's|brow, Sha- dows|nurs'd, sha- dows|nurs'd by|
 A,,2 B,,2 | E,4- | E,2!p! B,,2 | E,4- ||[M:6/8] x6 |[M:6/8] E,6 | E,6 | z E,E, F,2 G, | %24
w: night re-|tire,|* re-|tire;||||And the peep- ing|
 A,3 G,2 F, | E,3 E,3 | F,3- F,3 | F,2 F, F,2 F, | F,6- | F,2 F, B,,2 B,, | (F,2 E, D,2) E, | %31
w: sun- beams now|Paint with|gold, *|* now paint with|gold,|* now paint with|gold * * the|
 F,3 F,3 | B,,6 | z E,E, E,2 E, | A,3 E,3 | z E,E, F,2 G, | A,3 G,2 F, | E,3 E,3 | F,3 F,3 | %39
w: vil- lage|spire,|And the peep- ing|sun- beams,|and the peep- ing|sun- beams now|Paint with|gold, now|
 F,2 F, F,2 F, | F,6- | F,2 F, B,,2 B,, | (F,2 E, D,2) E, | F,3 F,3 | B,,3- B,,2 |:[M:4/4] z8 | %46
w: paint, now paint with|gold,|* now paint with|gold * * the|vil- lage|spire. *||
 z8 | E,3 E, A,2 G,2 | TF,3 F, E,4 | z8 | z8 | E,3 E, A,2 G,2 | TF,3 F, E,4 | z8 | z4 z2 E,A, | %55
w: |Sweet, oh sweet the|war- bling throng,|||Sweet, oh sweet the|war- bling throng,||On the|
 G,B,B,,_D, C,2 CB, | A,G,F,E, B,,4 | z8 | z4!f! A,2 A,2 | A, (G,/F,/) (E,/F,/) (G,/A,/) B,4 | %60
w: white em- blos- som'd spray, On the|white em- vlos- som'd spray;||Na- ture's|u- ni\- * ver\- * sal * song|
!p! DB, z2 G,E, z2 | z4 z2 E,G, | z2 E,G,!f! A,F,G,A, | B,2 B,,2 E,4 |!p! E,3 E, A,3 F, | %65
w: E- choes, e- choes,|e- choes,|e- choes, e- choes to the|ri- sing day,|Na- ture's u- ni-|
 B,2 B,,2 E,4 |!f! E,2 F,2 G,2 A,2 | B,2 B,,2 E,4 :| %68
w: ver- sal song|E- choes to the|ri- sing day.|

